www/assets/icons/child_care.svg

<svg xmlns="http://www.w3.org/2000/svg" width="24" height="24" viewBox="0 0 24 24" fill='currentColor'><path d="M14.5 11.75a1.25 1.25 0 1 0 0-2.5 1.25 1.25 0 0 0 0 2.5m-5 0a1.25 1.25 0 1 0 0-2.5 1.25 1.25 0 0 0 0 2.5"/><path d="M22.94 12.66q.06-.315.06-.66t-.06-.66a4.01 4.01 0 0 0-2.81-3.17 9.1 9.1 0 0 0-2.19-2.91A8.9 8.9 0 0 0 12 3c-2.28 0-4.36.85-5.94 2.26-.92.81-1.67 1.8-2.19 2.91a3.99 3.99 0 0 0-2.81 3.17Q1 11.655 1 12t.06.66a4.01 4.01 0 0 0 2.81 3.17 9 9 0 0 0 2.17 2.89A8.9 8.9 0 0 0 12 21c2.29 0 4.38-.86 5.97-2.28.9-.8 1.65-1.79 2.17-2.89a4 4 0 0 0 2.8-3.17M19 14c-.1 0-.19-.02-.29-.03-.2.67-.49 1.29-.86 1.86A6.98 6.98 0 0 1 12 19c-2.45 0-4.6-1.26-5.85-3.17-.37-.57-.66-1.19-.86-1.86-.1.01-.19.03-.29.03-1.1 0-2-.9-2-2s.9-2 2-2c.1 0 .19.02.29.03.2-.67.49-1.29.86-1.86A6.98 6.98 0 0 1 12 5c2.45 0 4.6 1.26 5.85 3.17.37.57.66 1.19.86 1.86.1-.01.19-.03.29-.03 1.1 0 2 .9 2 2s-.9 2-2 2M7.5 14c.76 1.77 2.49 3 4.5 3s3.74-1.23 4.5-3z"/></svg>

<svg width="24" height="24" viewBox="0 0 24 24" xmlns="http://www.w3.org/2000/svg" fill='currentColor'><path d="M14.5 11.75C15.1904 11.75 15.75 11.1904 15.75 10.5C15.75 9.80964 15.1904 9.25 14.5 9.25C13.8096 9.25 13.25 9.80964 13.25 10.5C13.25 11.1904 13.8096 11.75 14.5 11.75Z"/><path d="M9.5 11.75C10.1904 11.75 10.75 11.1904 10.75 10.5C10.75 9.80964 10.1904 9.25 9.5 9.25C8.80964 9.25 8.25 9.80964 8.25 10.5C8.25 11.1904 8.80964 11.75 9.5 11.75Z"/><path d="M22.94 12.66C22.98 12.45 23 12.23 23 12C23 11.77 22.98 11.55 22.94 11.34C22.69 9.83 21.58 8.6 20.13 8.17C19.6 7.05 18.85 6.07 17.94 5.26C16.36 3.85 14.28 3 12 3C9.72 3 7.64 3.85 6.06 5.26C5.14 6.07 4.39 7.06 3.87 8.17C2.42 8.6 1.31 9.82 1.06 11.34C1.02 11.55 1 11.77 1 12C1 12.23 1.02 12.45 1.06 12.66C1.31 14.17 2.42 15.4 3.87 15.83C4.39 16.94 5.14 17.92 6.04 18.72C7.62 20.14 9.71 21 12 21C14.29 21 16.38 20.14 17.97 18.72C18.87 17.92 19.62 16.93 20.14 15.83C21.58 15.4 22.69 14.18 22.94 12.66ZM19 14C18.9 14 18.81 13.98 18.71 13.97C18.51 14.64 18.22 15.26 17.85 15.83C16.6 17.74 14.45 19 12 19C9.55 19 7.4 17.74 6.15 15.83C5.78 15.26 5.49 14.64 5.29 13.97C5.19 13.98 5.1 14 5 14C3.9 14 3 13.1 3 12C3 10.9 3.9 10 5 10C5.1 10 5.19 10.02 5.29 10.03C5.49 9.36 5.78 8.74 6.15 8.17C7.4 6.26 9.55 5 12 5C14.45 5 16.6 6.26 17.85 8.17C18.22 8.74 18.51 9.36 18.71 10.03C18.81 10.02 18.9 10 19 10C20.1 10 21 10.9 21 12C21 13.1 20.1 14 19 14ZM7.5 14C8.26 15.77 9.99 17 12 17C14.01 17 15.74 15.77 16.5 14H7.5Z"/></svg>
